src/images_karasa_jaga_svg/cmd/lc_flowchartshapes.flowchart-internal-storage.svg

<svg height="24" viewBox="0 0 24 24" width="24" xmlns="http://www.w3.org/2000/svg" xmlns:xlink="http://www.w3.org/1999/xlink"><linearGradient id="a"><stop offset="0" stop-color="#7c9fcf"/><stop offset=".5" stop-color="#7c9ece"/><stop offset="1" stop-color="#7b9dcf"/></linearGradient><linearGradient id="b" gradientTransform="matrix(.40973888 0 0 .24845378 46.138617 23.258463)" gradientUnits="userSpaceOnUse" x1="82.625992" x2="148.58893" y1="685.96204" y2="-265.62833"><stop offset="0" stop-color="#fff"/><stop offset=".42597079" stop-color="#fff"/><stop offset=".5892781" stop-color="#f1f1f1"/><stop offset=".80219781" stop-color="#eaeaea"/><stop offset="1" stop-color="#dfdfdf"/></linearGradient><linearGradient id="c" gradientTransform="matrix(.52924142 0 0 .32091665 51.739956 31.088216)" gradientUnits="userSpaceOnUse" x1="34.312935" x2="286.96298" xlink:href="#a" y1="183.73163" y2="-90.271233"/><linearGradient id="d" gradientUnits="userSpaceOnUse" x1="5.833984" x2="122.16406" xlink:href="#a" y1="64.000977" y2="64.000977"/><g fill-rule="evenodd" transform="matrix(.171875 0 0 .171875 1.000155 .999845)"><path d="m11.636719 5.8359375a5.8041015 5.8041015 0 0 0 -5.8027346 5.8027345v104.724608a5.8041015 5.8041015 0 0 0 5.8027346 5.80274h104.724611a5.8041015 5.8041015 0 0 0 5.80273-5.80274v-104.724608a5.8041015 5.8041015 0 0 0 -5.80273-5.8027345z" fill="url(#d)"/><path d="m11.6362 11.638v104.7258h104.7258v-104.7258z" fill="url(#b)"/><path d="m29.0905 5.8199.27171 29.0905-23.54411.058928v5.759172l23.2724-.05893.05893 81.51233h5.75917l.212785-81.512328 87.058715.058928v-5.759172l-87.058715-.058928-.27171-29.0905z" fill="url(#c)"/></g></svg>

<?xml version="1.0" encoding="UTF-8" standalone="no"?>
<!-- Created with Inkscape (http://www.inkscape.org/) -->

<svg
   xmlns:dc="http://purl.org/dc/elements/1.1/"
   xmlns:cc="http://creativecommons.org/ns#"
   xmlns:rdf="http://www.w3.org/1999/02/22-rdf-syntax-ns#"
   xmlns:svg="http://www.w3.org/2000/svg"
   xmlns="http://www.w3.org/2000/svg"
   xmlns:xlink="http://www.w3.org/1999/xlink"
   xmlns:sodipodi="http://sodipodi.sourceforge.net/DTD/sodipodi-0.dtd"
   xmlns:inkscape="http://www.inkscape.org/namespaces/inkscape"
   version="1.1"
   id="svg2"
   width="128"
   height="128"
   viewBox="0 0 128 128"
   sodipodi:docname="lc_flowchartshapes.flowchart-internal-storage.svg"
   inkscape:export-filename="/home/rizmut/Dokumen/Rizmut/Github/libreoffice-style-karasa-jaga/build/images_karasa_jaga/cmd/lc_flowchartshapes.flowchart-internal-storage.png"
   inkscape:export-xdpi="16.5"
   inkscape:export-ydpi="16.5"
   inkscape:version="0.92.3 (unknown)">
  <metadata
     id="metadata8">
    <rdf:RDF>
      <cc:Work
         rdf:about="">
        <dc:format>image/svg+xml</dc:format>
        <dc:type
           rdf:resource="http://purl.org/dc/dcmitype/StillImage" />
        <dc:title></dc:title>
      </cc:Work>
    </rdf:RDF>
  </metadata>
  <defs
     id="defs6">
    <inkscape:perspective
       id="perspective27"
       inkscape:persp3d-origin="64 : 42.666667 : 1"
       inkscape:vp_z="128 : 64 : 1"
       inkscape:vp_y="0 : 1000 : 0"
       inkscape:vp_x="0 : 64 : 1"
       sodipodi:type="inkscape:persp3d" />
    <linearGradient
       id="linearGradient3369">
      <stop
         id="stop3372"
         offset="0"
         style="stop-color:#ffffff;stop-opacity:1;" />
      <stop
         style="stop-color:#ffffff;stop-opacity:1;"
         offset="0.42597079"
         id="stop3374" />
      <stop
         style="stop-color:#f1f1f1;stop-opacity:1;"
         offset="0.5892781"
         id="stop3376" />
      <stop
         id="stop3378"
         offset="0.80219781"
         style="stop-color:#eaeaea;stop-opacity:1;" />
      <stop
         id="stop3384"
         offset="1"
         style="stop-color:#dfdfdf;stop-opacity:1;" />
    </linearGradient>
    <linearGradient
       id="linearGradient7422">
      <stop
         style="stop-color:#7c9fcf;stop-opacity:1"
         offset="0"
         id="stop7424" />
      <stop
         id="stop5348"
         offset="0.5"
         style="stop-color:#7c9ece;stop-opacity:1" />
      <stop
         id="stop7426"
         offset="1"
         style="stop-color:#7b9dcf;stop-opacity:1" />
    </linearGradient>
    <linearGradient
       y2="388.95178"
       x2="399.77466"
       y1="1324.7792"
       x1="405.94968"
       gradientTransform="matrix(0.08097132,0,0,0.07807154,182.74486,-6.9021226)"
       gradientUnits="userSpaceOnUse"
       id="linearGradient2330"
       xlink:href="#linearGradient7422"
       inkscape:collect="always" />
    <linearGradient
       y2="-265.62833"
       x2="148.58893"
       y1="685.96204"
       x1="82.625992"
       gradientTransform="matrix(0.40973888,0,0,0.24845378,46.138617,23.258463)"
       gradientUnits="userSpaceOnUse"
       id="linearGradient2360"
       xlink:href="#linearGradient3369"
       inkscape:collect="always" />
    <linearGradient
       inkscape:collect="always"
       xlink:href="#linearGradient7422"
       id="linearGradient37405"
       gradientUnits="userSpaceOnUse"
       gradientTransform="matrix(0.52924142,0,0,0.32091665,51.739956,31.088216)"
       x1="34.312935"
       y1="183.73163"
       x2="286.96298"
       y2="-90.271233" />
    <linearGradient
       inkscape:collect="always"
       xlink:href="#linearGradient7422"
       id="linearGradient847"
       x1="5.8339844"
       y1="64.000977"
       x2="122.16406"
       y2="64.000977"
       gradientUnits="userSpaceOnUse" />
  </defs>
  <sodipodi:namedview
     pagecolor="#ffffff"
     bordercolor="#666666"
     borderopacity="1"
     objecttolerance="10"
     gridtolerance="10"
     guidetolerance="10"
     inkscape:pageopacity="0"
     inkscape:pageshadow="2"
     inkscape:window-width="1366"
     inkscape:window-height="706"
     id="namedview4"
     showgrid="true"
     inkscape:snap-page="true"
     inkscape:snap-global="true"
     inkscape:zoom="1.7320077"
     inkscape:cx="71.767968"
     inkscape:cy="94.020344"
     inkscape:window-x="0"
     inkscape:window-y="0"
     inkscape:window-maximized="1"
     inkscape:current-layer="svg2"
     showguides="false"
     inkscape:snap-bbox="true">
    <inkscape:grid
       type="xygrid"
       id="grid837"
       spacingx="5.8181"
       spacingy="5.8181"
       empspacing="1" />
  </sodipodi:namedview>
  <path
     sodipodi:type="inkscape:offset"
     inkscape:radius="5.8035212"
     inkscape:original="M 11.636719 11.638672 L 11.636719 116.36328 L 116.36133 116.36328 L 116.36133 11.638672 L 11.636719 11.638672 z "
     style="fill:url(#linearGradient847);fill-opacity:1.0;fill-rule:evenodd;stroke:none;stroke-width:4.47213125;stroke-linecap:round;stroke-linejoin:round;stroke-miterlimit:4;stroke-dasharray:none;stroke-opacity:1"
     id="path837"
     d="M 11.636719,5.8359375 A 5.8041015,5.8041015 0 0 0 5.8339844,11.638672 V 116.36328 a 5.8041015,5.8041015 0 0 0 5.8027346,5.80274 H 116.36133 a 5.8041015,5.8041015 0 0 0 5.80273,-5.80274 V 11.638672 a 5.8041015,5.8041015 0 0 0 -5.80273,-5.8027345 z" />
  <path
     sodipodi:nodetypes="ccccc"
     style="fill:url(#linearGradient2360);fill-opacity:1;fill-rule:evenodd;stroke:none;stroke-width:4.47213125;stroke-linecap:round;stroke-linejoin:round;stroke-miterlimit:4;stroke-dasharray:none;stroke-opacity:1"
     d="m 11.6362,11.638 0,104.7258 H 116.362 l 0,-104.7258 z"
     id="path37359"
     inkscape:connector-curvature="0" />
  <path
     style="fill:url(#linearGradient37405);fill-opacity:1;fill-rule:evenodd;stroke:none;stroke-width:5.77645302;stroke-linecap:round;stroke-linejoin:round;stroke-miterlimit:4;stroke-dasharray:none;stroke-opacity:1"
     d="M 29.0905,5.8199 29.36221,34.9104 5.8181,34.969328 V 40.7285 l 23.2724,-0.05893 0.05893,81.512328 H 34.9086 L 35.121385,40.669572 122.1801,40.7285 V 34.969328 L 35.121385,34.9104 34.849675,5.8199 Z"
     id="path37403"
     inkscape:connector-curvature="0"
     sodipodi:nodetypes="ccccccccccccc" />
  <g
     transform="matrix(0,0.57912965,0.57912965,0,27.114229,-2.9133545)"
     inkscape:label="Livello 1"
     id="g1544" />
  <g
     transform="matrix(0,-0.57912965,0.57912965,0,27.114229,130.91165)"
     inkscape:label="Livello 1"
     id="g1599" />
</svg>
